!!!COM: Claude Goudimel
!!!OMD: Psalm 140: O Dieu, donne-moy delivrance
**kern	**kern	**kern	**kern
*part4	*part3	*part2	*part1
*staff4	*staff3	*staff2	*staff1
*clefF4	*clefGv2	*clefG2	*clefG2
*k[f#]	*k[f#]	*k[f#]	*k[f#]
!!LO:TX:omd:t=
*M4/4	*M4/4	*M4/4	*M4/4
=1	=1	=1	=1
2G	2B	2d	2g
4E	4B	4e	4g
4D	4d	4f#	4a
=2	=2	=2	=2
2G	2d	2g	2b
4G	4d	4g	4b
[4C	[4e	[4g	[4cc
=3	=3	=3	=3
4C]	4e]	4g]	4cc]
4C	4e	4g	4cc
2G	2d	2g	2b
=4	=4	=4	=4
2D	2d	2f#	2a
2r	2r	2r	2r
=5	=5	=5	=5
2G	2d	2g	2b
4C	4e	4g	4cc
4G	4d	4g	4b
=6	=6	=6	=6
4D	4d	4f#	4a
4E	4B	4e	4g
2BB	2B	2e-X	2f#
=7	=7	=7	=7
2E	2B	2en	2g
2D	2d	2f#	2a
=8	=8	=8	=8
2r	2r	2r	2r
2GG	2B	2g	2dd
=9	=9	=9	=9
4C	4G	4e	4cc
4GG	4d	4g	4b
2D	2d	2f#	2a
=10	=10	=10	=10
2D	2A	2d	2f#
4C	4c	4e	4g
4D	4A	[4d	4f#
=11	=11	=11	=11
2AA	2A	4d]	2e
.	.	4c#X	.
2D	2A	2d	2d
=12	=12	=12	=12
2r	2r	2r	2r
2G	2d	2g	2b
=13	=13	=13	=13
4C	4e	4g	4cc
4G	4d	4g	4b
4D	4d	4f#	4a
4E	4B	4e	4g
=14	=14	=14	=14
2BB	2d	4f#	2b
.	.	2g	.
2D	2d	.	2a
.	.	4f#	.
=15	=15	=15	=15
1GG	1d	1g	1g
==	==	==	==
*-	*-	*-	*-
!!!software: music21 v.9.7.1
!!!software: music21 v.8.3.0
!!!RDF**kern: > = above
!!!RDF**kern: < = below
